assets/Mobile phone/Flat/mobile_phone_flat.svg

<svg width="32" height="32" viewBox="0 0 32 32" fill="none" xmlns="http://www.w3.org/2000/svg">
<path d="M9 2C7.34315 2 6 3.34315 6 5V7H25V5C25 3.34315 23.6569 2 22 2H9Z" fill="#7167A4"/>
<path d="M9 30C7.34315 30 6 28.6569 6 27V25H25V27C25 28.6569 23.6569 30 22 30H9Z" fill="#7167A4"/>
<path d="M6 6H25V26H6V6Z" fill="#321B41"/>
<path d="M13.5 10C13.5 9.44772 13.9477 9 14.5 9H16.5C17.0523 9 17.5 9.44772 17.5 10V12C17.5 12.5523 17.0523 13 16.5 13H14.5C13.9477 13 13.5 12.5523 13.5 12V10ZM8.5 15C8.5 14.4477 8.94772 14 9.5 14H11.5C12.0523 14 12.5 14.4477 12.5 15V17C12.5 17.5523 12.0523 18 11.5 18H9.5C8.94772 18 8.5 17.5523 8.5 17V15ZM14.5 19C13.9477 19 13.5 19.4477 13.5 20V22C13.5 22.5523 13.9477 23 14.5 23H16.5C17.0523 23 17.5 22.5523 17.5 22V20C17.5 19.4477 17.0523 19 16.5 19H14.5Z" fill="#00A6ED"/>
<path d="M8.5 10C8.5 9.44772 8.94772 9 9.5 9H11.5C12.0523 9 12.5 9.44772 12.5 10V12C12.5 12.5523 12.0523 13 11.5 13H9.5C8.94772 13 8.5 12.5523 8.5 12V10ZM8.5 20C8.5 19.4477 8.94772 19 9.5 19H11.5C12.0523 19 12.5 19.4477 12.5 20V22C12.5 22.5523 12.0523 23 11.5 23H9.5C8.94772 23 8.5 22.5523 8.5 22V20ZM19.5 14C18.9477 14 18.5 14.4477 18.5 15V17C18.5 17.5523 18.9477 18 19.5 18H21.5C22.0523 18 22.5 17.5523 22.5 17V15C22.5 14.4477 22.0523 14 21.5 14H19.5Z" fill="#FF822D"/>
<path d="M18.5 10C18.5 9.44772 18.9477 9 19.5 9H21.5C22.0523 9 22.5 9.44772 22.5 10V12C22.5 12.5523 22.0523 13 21.5 13H19.5C18.9477 13 18.5 12.5523 18.5 12V10ZM13.5 15C13.5 14.4477 13.9477 14 14.5 14H16.5C17.0523 14 17.5 14.4477 17.5 15V17C17.5 17.5523 17.0523 18 16.5 18H14.5C13.9477 18 13.5 17.5523 13.5 17V15ZM19.5 19C18.9477 19 18.5 19.4477 18.5 20V22C18.5 22.5523 18.9477 23 19.5 23H21.5C22.0523 23 22.5 22.5523 22.5 22V20C22.5 19.4477 22.0523 19 21.5 19H19.5Z" fill="#FCD53F"/>
</svg>

<svg xmlns="http://www.w3.org/2000/svg" width="32" height="32" fill="none"><path fill="#7167A4" d="M9 2a3 3 0 0 0-3 3v2h19V5a3 3 0 0 0-3-3H9ZM9 30a3 3 0 0 1-3-3v-2h19v2a3 3 0 0 1-3 3H9Z"/><path fill="#321B41" d="M6 6h19v20H6V6Z"/><path fill="#00A6ED" d="M13.5 10a1 1 0 0 1 1-1h2a1 1 0 0 1 1 1v2a1 1 0 0 1-1 1h-2a1 1 0 0 1-1-1v-2Zm-5 5a1 1 0 0 1 1-1h2a1 1 0 0 1 1 1v2a1 1 0 0 1-1 1h-2a1 1 0 0 1-1-1v-2Zm6 4a1 1 0 0 0-1 1v2a1 1 0 0 0 1 1h2a1 1 0 0 0 1-1v-2a1 1 0 0 0-1-1h-2Z"/><path fill="#FF822D" d="M8.5 10a1 1 0 0 1 1-1h2a1 1 0 0 1 1 1v2a1 1 0 0 1-1 1h-2a1 1 0 0 1-1-1v-2Zm0 10a1 1 0 0 1 1-1h2a1 1 0 0 1 1 1v2a1 1 0 0 1-1 1h-2a1 1 0 0 1-1-1v-2Zm11-6a1 1 0 0 0-1 1v2a1 1 0 0 0 1 1h2a1 1 0 0 0 1-1v-2a1 1 0 0 0-1-1h-2Z"/><path fill="#FCD53F" d="M18.5 10a1 1 0 0 1 1-1h2a1 1 0 0 1 1 1v2a1 1 0 0 1-1 1h-2a1 1 0 0 1-1-1v-2Zm-5 5a1 1 0 0 1 1-1h2a1 1 0 0 1 1 1v2a1 1 0 0 1-1 1h-2a1 1 0 0 1-1-1v-2Zm6 4a1 1 0 0 0-1 1v2a1 1 0 0 0 1 1h2a1 1 0 0 0 1-1v-2a1 1 0 0 0-1-1h-2Z"/></svg>
